build/system/TuneSolid.svg

<svg xmlns="http://www.w3.org/2000/svg" fill="none" viewBox="0 0 24 24" focusable="false"><path d="M0 0H24V24H0z"/><path fill="#74767B" fill-rule="evenodd" d="M12.6496 6.07052L12.6496 3.63511C12.6496 3.27612 12.3586 2.98511 11.9996 2.98511C11.6406 2.98511 11.3496 3.27612 11.3496 3.63511L11.3496 6.07069C10.0054 6.3678 9 7.56648 9 9C9 10.6569 10.3431 12 12 12C13.6569 12 15 10.6569 15 9C15 7.56621 13.9942 6.36734 12.6496 6.07052ZM5.99961 10.1721C6.35859 10.1721 6.64961 9.88105 6.64961 9.52206L6.64961 3.63513C6.64961 3.27614 6.35859 2.98512 5.99961 2.98512C5.64062 2.98512 5.34961 3.27614 5.34961 3.63513L5.34961 9.52206C5.34961 9.88105 5.64062 10.1721 5.99961 10.1721ZM17.9996 2.98514C18.3586 2.98514 18.6496 3.27615 18.6496 3.63514L18.6496 9.52495C18.6496 9.88394 18.3586 10.175 17.9996 10.175C17.6406 10.175 17.3496 9.88394 17.3496 9.52495L17.3496 3.63514C17.3496 3.27615 17.6406 2.98514 17.9996 2.98514ZM6.64961 20.362C6.64961 20.721 6.35859 21.012 5.99961 21.012C5.64062 21.012 5.34961 20.721 5.34961 20.362L5.34961 17.9264C4.00545 17.6293 3 16.4306 3 14.9971C3 13.3403 4.34315 11.9971 6 11.9971C7.65685 11.9971 9 13.3403 9 14.9971C9 16.4309 7.99416 17.6298 6.64961 17.9266L6.64961 20.362ZM18.6496 17.9295C19.9942 17.6327 21 16.4338 21 15C21 13.3431 19.6569 12 18 12C16.3431 12 15 13.3431 15 15C15 16.4335 16.0054 17.6322 17.3496 17.9293L17.3496 20.362C17.3496 20.721 17.6406 21.012 17.9996 21.012C18.3586 21.012 18.6496 20.721 18.6496 20.362L18.6496 17.9295ZM11.9996 21.012C12.3586 21.012 12.6496 20.721 12.6496 20.362L12.6496 14.4971C12.6496 14.1381 12.3586 13.8471 11.9996 13.8471C11.6406 13.8471 11.3496 14.1381 11.3496 14.4971L11.3496 20.362C11.3496 20.721 11.6406 21.012 11.9996 21.012Z"/></svg>

<svg xmlns="http://www.w3.org/2000/svg" fill="none" viewBox="0 0 24 24" focusable="false"><path fill="#74767B" fill-rule="evenodd" d="M12.64 6.07V3.63c0-.36-.29-.65-.65-.65-.35 0-.65.29-.65.65v2.44A2.986 2.986 0 0 0 9 9c0 1.65 1.34 3 3 3 1.65 0 3-1.35 3-3 0-1.44-1.01-2.64-2.36-2.93m-6.65 4.1c.36 0 .65-.29.65-.65V3.63c0-.36-.29-.65-.65-.65-.35 0-.65.29-.65.65v5.89c0 .36.3.65.65.65m12-7.19c.36 0 .65.29.65.65v5.89c0 .36-.29.65-.65.65-.35 0-.65-.29-.65-.65V3.63c0-.36.3-.65.65-.65M6.64 20.36c0 .36-.29.65-.65.65-.35 0-.65-.29-.65-.65v-2.44A3.002 3.002 0 0 1 6 11.99c1.65 0 3 1.35 3 3 0 1.44-1.01 2.63-2.36 2.93zm12-2.44A2.99 2.99 0 0 0 21 15c0-1.66-1.35-3-3-3-1.66 0-3 1.34-3 3 0 1.43 1 2.63 2.34 2.92v2.44c0 .36.3.65.65.65.36 0 .65-.29.65-.65zm-6.65 3.09c.36 0 .65-.29.65-.65v-5.87c0-.36-.29-.65-.65-.65-.35 0-.65.29-.65.65v5.87c0 .36.3.65.65.65"/></svg>
